polaris-icons/icons/newicons/TextBlockMajor.svg

<svg width="20" height="20" viewBox="0 0 20 20" fill="none" xmlns="http://www.w3.org/2000/svg">
<path d="M6.75 6.25C6.33579 6.25 6 6.58579 6 7C6 7.41421 6.33579 7.75 6.75 7.75H13.25C13.6642 7.75 14 7.41421 14 7C14 6.58579 13.6642 6.25 13.25 6.25H6.75Z" fill="black"/>
<path d="M6 10C6 9.58579 6.33579 9.25 6.75 9.25H13.25C13.6642 9.25 14 9.58579 14 10C14 10.4142 13.6642 10.75 13.25 10.75H6.75C6.33579 10.75 6 10.4142 6 10Z" fill="black"/>
<path d="M6.75 12.25C6.33579 12.25 6 12.5858 6 13C6 13.4142 6.33579 13.75 6.75 13.75H10.75C11.1642 13.75 11.5 13.4142 11.5 13C11.5 12.5858 11.1642 12.25 10.75 12.25H6.75Z" fill="black"/>
<path fill-rule="evenodd" clip-rule="evenodd" d="M3 6C3 4.34315 4.34315 3 6 3H14C15.6569 3 17 4.34315 17 6V14C17 15.6569 15.6569 17 14 17H6C4.34315 17 3 15.6569 3 14V6ZM6 4.5H14C14.8284 4.5 15.5 5.17157 15.5 6V14C15.5 14.8284 14.8284 15.5 14 15.5H6C5.17157 15.5 4.5 14.8284 4.5 14V6C4.5 5.17157 5.17157 4.5 6 4.5Z" fill="black"/>
</svg>

<svg viewBox="0 0 20 20" fill="none" xmlns="http://www.w3.org/2000/svg"><path d="M6.75 6.25a.75.75 0 0 0 0 1.5h6.5a.75.75 0 0 0 0-1.5h-6.5Z" fill="#5C5F62"/><path d="M6 10a.75.75 0 0 1 .75-.75h6.5a.75.75 0 0 1 0 1.5h-6.5a.75.75 0 0 1-.75-.75Z" fill="#5C5F62"/><path d="M6.75 12.25a.75.75 0 0 0 0 1.5h4a.75.75 0 0 0 0-1.5h-4Z" fill="#5C5F62"/><path fill-rule="evenodd" clip-rule="evenodd" d="M3 6a3 3 0 0 1 3-3h8a3 3 0 0 1 3 3v8a3 3 0 0 1-3 3h-8a3 3 0 0 1-3-3v-8Zm3-1.5h8a1.5 1.5 0 0 1 1.5 1.5v8a1.5 1.5 0 0 1-1.5 1.5h-8a1.5 1.5 0 0 1-1.5-1.5v-8a1.5 1.5 0 0 1 1.5-1.5Z" fill="#5C5F62"/></svg>
